!!!COM: Gioseffo Zarlino
!!!OPR: Le istitutioni harmoniche
!!!OTL: Type seven: Canon at the fifth below after a minim with the cantus firmus as highest voice.
!!!PPR: Francesco Senese
!!!PDT: 1573
!!!PPP: Venice
!!!ONB: Reprint ed., New York: Broude Bros., 1965.
!!!ONB: Transcribed from Gioseffo Zarlino, Le Istitutioni Harmoniche, 1573,
!!!ONB: Transcribed from Denis Collins, "Zarlino and Berardi as Teachers of
!!!ONB: Canon", Theoria, Vol. 7 (1993) pp. 108-109.
**kern	**kern	**kern
*conseq	*guida	*CF
*k[]	*k[]	*k[]
*M4/2	*M4/2	*M4/2
=1-	=1-	=1-
1r	2r	1G
.	1C	.
1FF	.	1A
.	2D	.
=2	=2	=2
2GG	2BB	1G
2EE	2.C	.
2.FF	.	1F
.	4AA	.
.	2D	.
4DD	.	.
=3	=3	=3
2GG	2BB	1G
2EE	2.E	.
2.AA	.	1A
.	4C	.
.	2F	.
4FF	.	.
=4	=4	=4
2BB-	2D	1G
2GG	1E	.
1AA	.	1c
.	[2F	.
=5	=5	=5
2.BB-	4F]	1d
.	4D	.
.	2.G	.
4GG	.	.
2.C	.	1c
.	4F	.
.	4E	.
4BB-	4D	.
=6	=6	=6
4AA	2.C	1c
4GG	.	.
2.FF	.	.
.	8BB	.
.	8AA	.
.	2BB	1G
8EE	.	.
8DD	.	.
2EE	[2C	.
=7	=7	=7
1FF	2C]	1A
.	2C	.
2FF	2C	1c
2FF	2F	.
=8	=8	=8
2BB-	2D	1d
2GG	2G	.
2C	2E	1c
2AA	[2F	.
=9	=9	=9
2.BB-	4F]	1d
.	4D	.
.	2.G	.
4GG	.	.
2.C	.	1e
.	4E	.
.	2A	.
4AA	.	.
=10	=10	=10
2D	2.F	1d
2.BB-	.	.
.	8E	.
.	8D	.
.	2E	1c
8AA	.	.
8GG	.	.
2AA	2F	.
=11	=11	=11
2BB	2D	1d
2GG	2.G	.
2.C	.	1e
.	4F	.
.	4E	.
4BB	4D	.
=12	=12	=12
4AA	2.E	1c
4GG	.	.
2.AA	.	.
.	8D	.
.	8C	.
.	2D	1B
8GG	.	.
8FF	.	.
2GG	4C	.
.	4BB	.
=13	=13	=13
4FF	2.C	1A
4EE	.	.
2.FF	.	.
.	8BB	.
.	8AA	.
.	2BB	1G
8EE	.	.
8DD	.	.
2EE	[2C	.
=14	=14	=14
2.FF	4C]	1c
.	4BB	.
.	2AA	.
4EE	.	.
2DD	4D	1d
.	4C	.
4GG	4BB	.
4FF	4AA	.
=15	=15	=15
4EE	2BB	1G
4DD	.	.
2EE	2C	.
2FF	2C	1C
2FF	[2C	.
=16	=16	=16
2.FF	4C]	1c
.	4BB	.
.	2AA	.
4EE	.	.
2DD	2D	1B
2GG	[2E	.
=17	=17	=17
2.AA	4E]	1c
.	4D	.
.	4C	.
4GG	4BB	.
4FF	2.C	1A
4EE	.	.
[2FF	.	.
.	8BB	.
.	8AA	.
=18	=18	=18
4FF]	2BB	1G
8EE	.	.
8DD	.	.
2EE	2C	.
2FF	1AA	1F
[2DD	.	.
=19	=19	=19
2DD]	2AA	1A
2DD	2D	.
2GG	1D	1B-
[2GG	.	.
=20	=20	=20
2GG]	1C	1A
1FF	.	.
.	2BB	1G
2EE	[2C	.
=21	=21	=21
2.FF	4C]	1F
.	4AA	.
.	2D	.
4DD	.	.
2GG	2BB	1G
2EE	2G	.
=22	=22	=22
0C	0E	0G
==	==	==
*-	*-	*-
!!!CDT: 1517/3/22-1590/2/14
!!!CNT: Italia
!!!ODT: <1573//
!!!YEP: David Huron and Denis Collins
!!!YEN: Canada
!!!AIN: vox; ?
!!!AST: polyphony
!!!RDT: 1995 July 3
!!!YED: 1995 August 31
!!!AFR: cantus firmus canon
!!!AMT: simple quadruple
!!!EEV: 1.0
